public/img/decorations/deco-lines-5.svg

<svg width="184" height="81" viewBox="0 0 184 81" fill="none" xmlns="http://www.w3.org/2000/svg">
<path d="M106.27 57.509C107.217 57.164 108.159 56.534 109.112 56.514C131.21 56.053 153.307 55.655 175.405 55.26C176.436 55.241 177.485 55.2749 178.501 55.4339C181.522 55.9059 183.179 57.506 183.296 59.944C183.441 62.993 181.905 65.768 179.353 66.506C177.207 67.125 174.972 67.5199 172.748 67.7829C165.721 68.6189 158.678 69.3429 151.643 70.1189C150.801 70.2129 149.967 70.369 148.973 70.519C148.42 71.853 148.049 73.185 147.356 74.32C146.35 75.97 145.002 76.9309 142.811 77.1789C129.262 78.7099 115.709 79.878 102.051 79.743C94.852 79.673 87.647 80.113 80.442 80.155C78.249 80.168 76.051 79.3679 73.854 79.3699C58.645 79.3799 43.624 77.3949 28.614 75.2739C21.452 74.2619 14.298 73.169 7.16705 71.962C2.85304 71.233 0.98504 69.2959 0.67704 65.7789C0.41504 62.8019 1.99504 60.763 4.96604 60.406C5.98404 60.283 7.03203 60.427 8.06803 60.463C15.099 60.706 22.132 60.9529 29.246 60.7839C26.967 60.4059 24.685 60.049 22.412 59.644C20.898 59.373 19.318 59.238 17.906 58.687C14.812 57.48 14.162 55.958 14.906 52.528C15.541 49.603 16.82 48.607 20.008 48.556C24.824 48.48 29.643 48.404 34.315 48.329C34.555 47.587 34.848 47.089 34.737 46.97C31.716 43.749 30.706 39.074 26.985 36.35C25.243 35.074 24.897 33.1589 25.481 31.2279C26.059 29.3219 27.395 27.9259 29.452 27.5409C31.118 27.2289 32.815 27.0829 34.556 26.8559C35.038 24.1809 33.949 22.627 31.806 21.777C24.55 18.896 23.81 16.9359 24.931 10.3129C23.88 9.36394 22.745 8.33794 21.464 7.17994C21.505 6.28094 21.585 5.25796 21.593 4.23396C21.611 2.26896 22.779 1.44394 24.54 1.34294C29.702 1.04794 34.888 0.391959 40.028 0.638959C51.753 1.20096 63.444 2.41096 75.167 2.99696C89.489 3.71296 103.829 4.05895 118.161 4.56395C126.96 4.87495 135.763 5.10595 144.556 5.55995C146.368 5.65295 148.41 6.18895 149.867 7.20695C152.109 8.77295 154.41 9.34295 157.053 9.66395C159.352 9.94295 161.547 11.075 164.133 11.946C163.488 15.223 162.938 18.025 162.309 21.234C163.909 21.448 165.395 21.697 166.891 21.829C167.918 21.92 168.969 21.7809 169.998 21.8649C173.602 22.1599 175.807 23.5679 176.049 25.6579C176.416 28.8279 174.061 31.74 170.502 32.515C165.959 33.504 165.959 33.504 164.998 38.858C166.56 38.929 168.082 38.9539 169.598 39.0759C172.922 39.3429 174.436 40.5219 174.766 43.0159C175.245 46.6299 173.711 49.55 170.557 50.302C167.039 51.142 163.461 51.9369 159.866 52.2179C143.854 53.4649 127.827 54.5169 111.807 55.6539C109.809 55.7969 107.543 55.223 106.27 57.523C104.791 55.748 103.09 56.222 101.452 56.902C103.002 57.101 104.635 57.305 106.27 57.509ZM152.543 38.5669C152.533 38.9539 152.522 39.3399 152.512 39.7269C154.104 39.6279 155.696 39.529 157.287 39.431C157.291 39.304 157.295 39.176 157.299 39.048C155.715 38.888 154.129 38.7279 152.543 38.5669ZM162.824 38.9179C162.697 38.8329 162.572 38.685 162.443 38.681C162.298 38.677 162.152 38.806 162.005 38.876C162.193 39.021 162.38 39.1649 162.567 39.3089C162.652 39.1789 162.738 39.0489 162.824 38.9179ZM113.043 20.75L112.957 20.466L112.6 20.627L113.043 20.75Z" fill="black"/>
</svg>

<svg width="184" height="81" fill="none" xmlns="http://www.w3.org/2000/svg"><path d="M106.27 57.509c.947-.345 1.889-.975 2.842-.995 22.098-.461 44.195-.859 66.293-1.254 1.031-.019 2.08.015 3.096.174 3.021.472 4.678 2.072 4.795 4.51.145 3.049-1.391 5.824-3.943 6.562-2.146.619-4.381 1.014-6.605 1.277-7.027.836-14.07 1.56-21.105 2.336-.842.094-1.676.25-2.67.4-.553 1.334-.924 2.666-1.617 3.801-1.006 1.65-2.354 2.61-4.545 2.859-13.549 1.53-27.102 2.699-40.76 2.564-7.199-.07-14.404.37-21.609.412-2.193.013-4.391-.787-6.588-.785-15.209.01-30.23-1.975-45.24-4.096a795.057 795.057 0 01-21.447-3.312c-4.314-.729-6.182-2.666-6.49-6.183-.262-2.977 1.318-5.016 4.289-5.373 1.018-.123 2.066.021 3.102.057 7.031.243 14.064.49 21.178.32-2.279-.377-4.561-.734-6.834-1.139-1.514-.271-3.094-.406-4.506-.957-3.094-1.207-3.744-2.729-3-6.159.635-2.925 1.914-3.921 5.102-3.972l14.307-.227c.24-.742.533-1.24.422-1.359-3.021-3.221-4.031-7.896-7.752-10.62-1.742-1.276-2.088-3.191-1.504-5.122.578-1.906 1.914-3.302 3.971-3.687 1.666-.312 3.363-.458 5.104-.685.482-2.675-.607-4.229-2.75-5.079-7.256-2.881-7.996-4.841-6.875-11.464L21.464 7.18c.041-.9.121-1.922.129-2.946.018-1.965 1.186-2.79 2.947-2.891 5.162-.295 10.348-.951 15.488-.704 11.725.562 23.416 1.772 35.139 2.358 14.322.716 28.662 1.062 42.994 1.567 8.799.311 17.602.542 26.395.996 1.812.093 3.854.629 5.311 1.647 2.242 1.566 4.543 2.136 7.186 2.457 2.299.279 4.494 1.411 7.08 2.282-.645 3.277-1.195 6.079-1.824 9.288 1.6.214 3.086.463 4.582.595 1.027.091 2.078-.048 3.107.036 3.604.295 5.809 1.703 6.051 3.793.367 3.17-1.988 6.082-5.547 6.857-4.543.989-4.543.989-5.504 6.343 1.562.071 3.084.096 4.6.218 3.324.267 4.838 1.446 5.168 3.94.479 3.614-1.055 6.534-4.209 7.286-3.518.84-7.096 1.635-10.691 1.916-16.012 1.247-32.039 2.299-48.059 3.436-1.998.143-4.264-.431-5.537 1.869-1.479-1.775-3.18-1.301-4.818-.621 1.55.199 3.183.403 4.818.607zm46.273-18.942l-.031 1.16c1.592-.1 3.184-.198 4.775-.296l.012-.383-4.756-.481zm10.281.35c-.127-.084-.252-.232-.381-.236-.145-.004-.291.125-.438.195l.562.433.257-.391zM113.043 20.75l-.086-.284-.357.161.443.123z" fill="#000"/></svg>
